images_breeze_svg/cmd/32/statisticsmenu.svg

<svg viewBox="0 0 32 32" xmlns="http://www.w3.org/2000/svg"><path d="m6 4v21h-2v1h2v2h1v-2h21v-1h-4v-12h-5v12h-4v-8h-5v8h-3v-21z" fill="#4d4d4d"/><path d="m23 5.5-7.5 6.5-4.5 1v1l5-1 8-6.5 1 .5v-3l-3 .5z" fill="#1d99f3"/></svg>

<?xml version="1.0" encoding="UTF-8" standalone="no"?>
<svg
   xmlns:dc="http://purl.org/dc/elements/1.1/"
   xmlns:cc="http://creativecommons.org/ns#"
   xmlns:rdf="http://www.w3.org/1999/02/22-rdf-syntax-ns#"
   xmlns:svg="http://www.w3.org/2000/svg"
   xmlns="http://www.w3.org/2000/svg"
   xmlns:sodipodi="http://sodipodi.sourceforge.net/DTD/sodipodi-0.dtd"
   xmlns:inkscape="http://www.inkscape.org/namespaces/inkscape"
   viewBox="0 0 32 32"
   version="1.1"
   id="svg6"
   sodipodi:docname="statisticsmenu.svg"
   inkscape:version="0.92.4 (unknown)"
   inkscape:export-filename="/home/rizmut/Dokumen/Rizmut/Github/libreoffice-style-breeze/images_breeze/cmd/32/statisticsmenu.png"
   inkscape:export-xdpi="96"
   inkscape:export-ydpi="96">
  <metadata
     id="metadata12">
    <rdf:RDF>
      <cc:Work
         rdf:about="">
        <dc:format>image/svg+xml</dc:format>
        <dc:type
           rdf:resource="http://purl.org/dc/dcmitype/StillImage" />
        <dc:title></dc:title>
      </cc:Work>
    </rdf:RDF>
  </metadata>
  <defs
     id="defs10" />
  <sodipodi:namedview
     pagecolor="#ffffff"
     bordercolor="#666666"
     borderopacity="1"
     objecttolerance="10"
     gridtolerance="10"
     guidetolerance="10"
     inkscape:pageopacity="0"
     inkscape:pageshadow="2"
     inkscape:window-width="1360"
     inkscape:window-height="714"
     id="namedview8"
     showgrid="true"
     inkscape:zoom="20.85965"
     inkscape:cx="7.2585928"
     inkscape:cy="17.445458"
     inkscape:window-x="0"
     inkscape:window-y="28"
     inkscape:window-maximized="1"
     inkscape:current-layer="svg6">
    <inkscape:grid
       type="xygrid"
       id="grid822" />
  </sodipodi:namedview>
  <path
     d="M 6,4 V 25 H 4 v 1 h 2 v 2 H 7 V 26 H 28 V 25 H 24 V 13 h -5 v 12 h -4 v -8 h -5 v 8 H 7 V 4 Z"
     id="path2"
     inkscape:connector-curvature="0"
     style="fill:#4d4d4d"
     sodipodi:nodetypes="ccccccccccccccccccccc" />
  <path
     d="M 23,5.5 15.5,12 11,13 v 1 L 16,13 24,6.5 25,7 V 4 l -3,0.5 z"
     id="path4"
     inkscape:connector-curvature="0"
     style="fill:#1d99f3"
     sodipodi:nodetypes="cccccccccc" />
</svg>
